static/assets/images/icons/spherex.svg

<svg width="257" height="256" viewBox="0 0 257 256" fill="none" xmlns="http://www.w3.org/2000/svg">
<path d="M177.76 53.5H99.7347L169.138 127.97L136.779 162.3L145.798 170.882L186.181 128.038L128.359 65.9795H172.627L232.607 126.267L168.716 193.621L177.684 202.237L249.928 126.047L177.76 53.5085V53.5Z" fill="black"/>
<path d="M87.2179 128.038L119.585 93.7089L110.557 85.1266L70.1749 127.97L127.997 190.029H83.7452L23.7489 129.766L87.6394 62.3788L78.6627 53.7711L6.42773 129.961L78.5952 202.5H156.612L87.2179 128.038Z" fill="black"/>
</svg>

<svg xmlns="http://www.w3.org/2000/svg" fill="none" viewBox="0 0 257 256"><path fill="#000" d="M177.76 53.5H99.735l69.403 74.47-32.359 34.33 9.019 8.582 40.383-42.844-57.822-62.059h44.268l59.98 60.288-63.891 67.354 8.968 8.616 72.244-76.19-72.168-72.538z"/><path fill="#000" d="m87.218 128.038 32.367-34.33-9.028-8.581-40.382 42.843 57.822 62.059H83.745L23.75 129.766l63.89-67.387-8.976-8.608-72.235 76.19L78.595 202.5h78.017z"/></svg>
